icons/fill-new-other-wind-power.svg

<svg xmlns="http://www.w3.org/2000/svg" width="32px" height="32px" viewBox="0 0 32 32" version="1.1">
    <title>fill-new-other-wind-power</title>
    <g id="fill-new-other-wind-power" stroke-width="1" fill-rule="evenodd">
        <path d="M4,2 C4.55228475,2 5,2.44771525 5,3 L5,29 C5,29.5522847 4.55228475,30 4,30 C3.44771525,30 3,29.5522847 3,29 L3,3 C3,2.44771525 3.44771525,2 4,2 Z M7,2 L15,2.727 L15,15.273 L7,16 L7,2 Z M17,2.909 L21,3.272 L21,14.727 L17,15.091 L17,2.909 Z M23,3.454 L26.2716072,3.75196429 C27.8168447,3.89244043 29,5.1880343 29,6.73964391 L29,11.2603561 C29,12.8119657 27.8168447,14.1075596 26.2716072,14.2480357 L23,14.545 L23,3.454 Z" id="&#24418;&#29366;" fill-rule="nonzero" />
    </g>
</svg>

<svg xmlns="http://www.w3.org/2000/svg" viewBox="0 0 32 32"><path fill="currentColor" d="M4 2a1 1 0 0 1 1 1v26a1 1 0 0 1-2 0V3a1 1 0 0 1 1-1m3 0 8 .727v12.546L7 16zm10 .909 4 .363v11.455l-4 .364zm6 .545 3.272.298A3 3 0 0 1 29 6.74v4.52a3 3 0 0 1-2.728 2.988L23 14.545z"/></svg>
